fs/dual_screen_header_24_regular.svg

<svg viewBox="0 0 24 24" fill="none" xmlns="http://www.w3.org/2000/svg" height="1em" width="1em">
  <path d="M12.7476 4.00195L12.747 4.00395L20.2451 4.00439C21.2116 4.00439 21.9951 4.78789 21.9951 5.75439V18.2495C21.9951 19.216 21.2116 19.9995 20.2451 19.9995H11.2476L11.247 19.997L3.75 19.9971C2.7835 19.9971 2 19.2136 2 18.2471V5.75195C2 4.78545 2.7835 4.00195 3.75 4.00195H12.7476ZM20.495 6.99995H12.747L12.7476 18.4995H20.2451C20.3832 18.4995 20.4951 18.3876 20.4951 18.2495L20.495 6.99995ZM11.247 6.99995H3.5V18.2471C3.5 18.3851 3.61193 18.4971 3.75 18.4971H11.2476L11.247 6.99995Z" fill="#212121"/>
</svg>

<svg viewBox="0 0 24 24" fill="none" xmlns="http://www.w3.org/2000/svg" height="1em" width="1em">
  <path d="m12.748 4.002-.001.002h7.498c.967 0 1.75.784 1.75 1.75V18.25a1.75 1.75 0 0 1-1.75 1.75h-8.997l-.001-.002H3.75A1.75 1.75 0 0 1 2 18.247V5.752c0-.967.784-1.75 1.75-1.75h8.998ZM20.495 7h-7.748v11.5h7.498a.25.25 0 0 0 .25-.25V7Zm-9.248 0H3.5v11.247c0 .138.112.25.25.25h7.498L11.247 7Z" fill="#212121"/>
</svg>
